X: 10072
T: The HOWLET AND THE WEAZLE
Q: "Jig time."
%R: jig
B: W. Hamilton "Universal Tune-Book" Vol. 1 Glasgow 1844 p.7 #2
S: http://imslp.org/wiki/Hamilton's_Universal_Tune-Book_(Various)
Z: 2016 John Chambers <jc:trillian.mit.edu>
M: 6/8
L: 1/8
K: G
% - - - - - - - - - - - - - - - - - - - - - - - - -
|:\
GAG B2c | ded d2g | f2a A2c | BAB G3 |\
GAG B2c | ded d2g | f2a A2^c | d3 d3 :|
|:\
ded d2b | cdc c2a | BAG dcB | cDD D3 |\
GAG B2c | ded d2g | dBG cAF | G3 G3 :|
% - - - - - - - - - - - - - - - - - - - - - - - - -

%%sep 1 1 500
%%sep 1 1 500

